icon/lg/booqable-icon.svg

<?xml version="1.0" encoding="UTF-8"?>
<svg viewBox="0 0 256 135" version="1.1" xmlns="http://www.w3.org/2000/svg" xmlns:xlink="http://www.w3.org/1999/xlink" preserveAspectRatio="xMidYMid" height="1em" width="1em">
  <g>
    <path d="M241.248904,119.034135 C236.44986,124.438017 227.347542,122.965583 212.11256,114.552383 C203.307703,109.748382 193.679869,103.229019 183.496774,96.3378304 L179.585157,93.7152124 C173.358298,89.5309221 166.918259,85.2078165 160.73602,81.4151837 C159.119813,80.4434765 157.498648,79.476727 156.006384,78.6240043 L152.858251,76.8838552 C149.422572,74.9801022 146.452915,73.512626 143.969113,72.4715111 C143.463428,72.2384997 142.962702,72.0203614 142.347948,71.7625615 L142.347948,71.7576038 C141.396072,71.3411578 140.439237,70.9346273 139.482403,70.5429698 L138.942015,70.2207199 L138.694131,70.2207199 C122.189981,63.5675001 104.748828,60.1962709 86.7970325,60.1962709 C72.1470588,60.1962709 57.9333619,62.4668929 44.3046723,66.8594062 C68.8055758,44.1531864 99.8902916,23.0483004 110.911236,16.6380073 C115.670619,13.861701 121.550439,12.3942248 127.916113,12.3942248 C134.311533,12.3942248 140.493772,13.9112779 145.322562,16.6677535 C171.826372,31.7787923 239.003071,83.1999521 243.380711,109.986351 L243.385668,110.026012 C244.015295,113.759153 243.316261,116.704021 241.248904,119.034135 M21.9058293,121.820357 C18.8469346,121.820357 16.6258895,120.93293 14.9452326,119.04405 C12.7440183,116.55529 11.9755764,113.42203 12.605203,109.445962 C12.8481298,107.88429 13.3389411,106.173887 14.0776369,104.329627 C14.1272138,104.190811 14.2065368,104.04208 14.2660291,103.908223 C14.5932367,103.114992 14.940275,102.306889 15.3567209,101.469039 C15.515367,101.14679 15.7186323,100.804709 15.8871937,100.477501 C16.2441474,99.7933402 16.5911857,99.1190944 16.9977163,98.4101448 L17.3844161,97.7755604 C17.4141622,97.7259835 17.4538237,97.671449 17.4835699,97.6218721 C20.5127184,92.5600707 25.267143,88.3410765 31.2411594,85.4110818 C48.5930741,76.9036859 67.283565,72.5904957 86.7970325,72.5904957 C93.8617407,72.5904957 100.83721,73.16063 107.693696,74.3058564 C107.416065,74.4347563 107.133477,74.5934024 106.855846,74.72726 C105.968419,75.1635368 105.071078,75.6146865 104.16382,76.0856671 C103.677967,76.3385093 103.192113,76.5913514 102.696344,76.854109 C101.779171,77.349878 100.847126,77.8605201 99.91508,78.3810775 C99.4540149,78.6388774 99.0028651,78.8867619 98.5417999,79.1495194 C97.3222082,79.8485537 96.0927011,80.5674188 94.8582363,81.3061146 C94.5954788,81.4598029 94.3376789,81.6134913 94.0749213,81.7721374 C92.785922,82.545537 91.4870072,83.3437251 90.1831347,84.1567863 C89.5981273,84.5236553 89.0081622,84.9004397 88.4181971,85.2722665 C87.5704322,85.807697 86.7226672,86.3431275 85.8699445,86.8934311 C85.2105718,87.3148347 84.5462413,87.7461538 83.8819109,88.1725151 C83.0886805,88.6930725 82.2904924,89.2086723 81.4923043,89.7341874 C80.8180585,90.1754218 80.1487704,90.6116985 79.4745245,91.0578906 C78.6565057,91.5982788 77.8335292,92.1436247 77.0155103,92.6889706 C76.3511799,93.130205 75.6818918,93.5714394 75.0175613,94.0126738 C73.6740273,94.9100157 72.3304934,95.8073575 70.9919171,96.7046994 C52.4352838,109.054305 33.2490238,121.820357 21.9058293,121.820357 M255.606374,107.973529 C249.815792,72.6698187 171.880907,17.5452646 151.460182,5.899651 C144.787131,2.09710283 136.428466,0 127.916113,0 C119.364098,0 111.322725,2.04752593 104.67942,5.92443944 C88.8990931,15.1011235 37.9984907,50.057795 13.5719525,81.5242529 C11.0732768,84.7417937 8.91172402,87.8453075 7.13191334,90.7703446 L6.68572125,91.4842519 C3.19054986,97.3888606 1.11823548,102.634097 0.359708924,107.532294 C-0.845009725,115.152264 0.989335543,121.974045 5.67435251,127.273815 C9.72478517,131.815059 15.3368901,134.219539 21.9058293,134.219539 C36.9970374,134.219539 56.8426701,121.007295 78.1805675,106.808471 C95.5126514,95.2173924 117.078603,80.7905148 128.089632,80.7905148 C129.824823,80.7905148 132.045868,81.2416646 134.693275,82.1340488 L135.382394,82.3720179 C135.972359,82.5752832 136.567282,82.8033369 137.17212,83.041306 L138.971761,83.8147057 C141.232468,84.7616244 143.815424,86.0456661 147.112288,87.870096 C147.49403,88.0832767 147.890645,88.301415 148.004672,88.3509919 C148.242641,88.4848495 148.48061,88.6038341 148.763199,88.7426494 L149.76961,89.3326145 C151.27179,90.1952526 152.808674,91.1124252 154.300938,92.0147248 C160.225378,95.6387961 166.55139,99.892494 172.674137,104.002419 L176.546093,106.600248 C186.986988,113.669914 196.847833,120.347923 206.153417,125.419639 C217.422246,131.64154 226.137865,134.536831 233.579358,134.536831 C240.530039,134.536831 246.231382,132.09269 250.514826,127.2639 C255.105647,122.093029 256.86067,115.424937 255.606374,107.973529" fill="#1D1D1B"/>
  </g>
</svg>

<svg width="256" height="135" xmlns="http://www.w3.org/2000/svg" preserveAspectRatio="xMidYMid"><path d="M241.249 119.034c-4.8 5.404-13.901 3.932-29.136-4.482-8.805-4.804-18.433-11.323-28.616-18.214l-3.912-2.623c-6.227-4.184-12.667-8.507-18.849-12.3a254.532 254.532 0 0 0-4.73-2.791l-3.148-1.74c-3.435-1.904-6.405-3.371-8.889-4.412a49.617 49.617 0 0 0-1.621-.71v-.004c-.952-.417-1.909-.823-2.866-1.215l-.54-.322h-.248c-16.504-6.653-33.945-10.025-51.897-10.025-14.65 0-28.864 2.27-42.492 6.663 24.5-22.706 55.585-43.81 66.606-50.221 4.76-2.776 10.64-4.244 17.005-4.244 6.396 0 12.578 1.517 17.407 4.274 26.503 15.11 93.68 66.532 98.058 93.318l.005.04c.63 3.733-.07 6.678-2.137 9.008M21.906 121.82c-3.06 0-5.28-.887-6.96-2.776-2.202-2.489-2.97-5.622-2.34-9.598.242-1.562.733-3.272 1.472-5.116.05-.14.129-.288.188-.422.327-.793.674-1.601 1.09-2.439.16-.322.363-.664.531-.991.357-.685.704-1.359 1.11-2.068l.387-.634c.03-.05.07-.105.1-.154 3.029-5.062 7.783-9.28 13.757-12.21C48.593 76.903 67.284 72.59 86.797 72.59c7.065 0 14.04.57 20.897 1.716-.278.129-.56.287-.838.421-.888.437-1.785.888-2.692 1.359-.486.253-.972.505-1.468.768a230.29 230.29 0 0 0-2.78 1.527c-.462.258-.913.506-1.374.769-1.22.699-2.45 1.417-3.684 2.156a266.595 266.595 0 0 0-4.675 2.85c-.585.368-1.175.744-1.765 1.116-.848.536-1.695 1.071-2.548 1.621-.66.422-1.324.853-1.988 1.28-.793.52-1.592 1.036-2.39 1.561-.674.441-1.343.878-2.017 1.324-.818.54-1.641 1.086-2.46 1.631-.664.441-1.333.882-1.997 1.324-1.344.897-2.688 1.794-4.026 2.692-18.557 12.35-37.743 25.115-49.086 25.115m233.7-13.846C249.816 72.67 171.881 17.545 151.46 5.9 144.787 2.097 136.428 0 127.916 0c-8.552 0-16.593 2.048-23.237 5.924C88.9 15.101 38 50.058 13.572 81.524c-2.499 3.218-4.66 6.321-6.44 9.246l-.446.714C3.19 97.39 1.118 102.634.36 107.532c-1.205 7.62.63 14.442 5.314 19.742 4.05 4.541 9.663 6.946 16.232 6.946 15.091 0 34.937-13.213 56.275-27.412 17.332-11.59 38.898-26.017 49.909-26.017 1.735 0 3.956.45 6.603 1.343l.69.238c.59.203 1.184.431 1.79.67l1.799.773c2.26.947 4.843 2.23 8.14 4.055.382.213.779.431.893.481.238.134.476.253.758.392l1.007.59c1.502.862 3.039 1.78 4.53 2.682 5.925 3.624 12.251 7.877 18.374 11.987l3.872 2.598c10.441 7.07 20.302 13.748 29.607 18.82 11.27 6.222 19.985 9.117 27.426 9.117 6.951 0 12.652-2.444 16.936-7.273 4.59-5.171 6.346-11.84 5.091-19.29" fill="#1D1D1B"/></svg>
